assets/post/images/constellation9.svg

<svg xmlns="http://www.w3.org/2000/svg" width="1195" height="1226" overflow="hidden"><defs><clipPath id="a"><path d="M92 63h1195v1226H92z"/></clipPath></defs><g clip-path="url(#a)" transform="translate(-92 -63)"><path fill="none" stroke="#000" stroke-miterlimit="8" stroke-width="9.167" d="M92.5 739.5h1189.38M651.5 1288.94V185.5"/><path fill="#d74514" fill-rule="evenodd" d="M977 376.5c0-24.024 19.476-43.5 43.5-43.5 24.02 0 43.5 19.476 43.5 43.5s-19.48 43.5-43.5 43.5c-24.024 0-43.5-19.476-43.5-43.5"/><path fill-rule="evenodd" d="M1228.97 797.434h14.26l-.39 1.747q-1.365.285-1.95.641t-1.05 1.07q-.465.713-.96 2.228c-.33 1.01-.75 2.655-1.25 4.936l-6.09 27.66c-.31 1.403-.51 2.513-.61 3.333-.09.82-.14 1.563-.14 2.228 0 1.069.26 1.824.8 2.263.53.44 1.43.707 2.69.802l-.39 1.747h-14.26l.39-1.747c.91-.142 1.58-.374 2.03-.695.46-.32.84-.766 1.15-1.336.3-.571.59-1.266.85-2.085.26-.82.65-2.406 1.18-4.759l6.06-27.446q.78-3.565.78-5.739 0-1.675-.84-2.335c-.56-.439-1.44-.695-2.65-.766Z"/><text x="1219.63" y="840.007" fill-opacity="0" font-family="Arial,Arial_MSFontService,sans-serif" font-size="48.655">𝐼</text><path fill-rule="evenodd" d="M724.242 202.272q-3.85 0-7.182 2.744t-5.846 7.842q-2.513 5.097-3.903 11.192-1.39 6.096-1.39 10.765 0 11.014 8.02 11.014 4.954 0 9.089-4.616t6.666-12.778q2.53-8.163 2.53-15.256 0-5.311-1.96-8.109t-6.024-2.798m.392-3.137q6.88 0 10.604 3.992 3.725 3.993 3.725 11.549 0 4.99-1.568 11.157t-4.313 10.889q-2.745 4.723-6.363 7.61t-7.859 3.992q.82 2.603 1.532 4.296.714 1.692 1.373 2.744t1.301 1.568q.64.518 1.283.696t1.497.178q1.355 0 2.745-.784 1.39-.785 3.101-2.709l1.853 1.996q-2.851 3.101-5.311 4.384t-5.061 1.283q-2.96 0-4.83-1.319-1.872-1.319-3.244-4.206-1.372-2.886-2.655-7.556-6.452-.357-9.838-4.278-3.387-3.921-3.387-11.049 0-5.347 1.801-12.084t5.204-11.887 8.127-7.807q4.722-2.655 10.283-2.655"/><text x="699.219" y="254.121" fill-opacity="0" font-family="Arial,Arial_MSFontService,sans-serif" font-size="62.841">𝑄</text><path fill="#d74514" fill-rule="evenodd" d="M286 376.5c0-24.024 19.476-43.5 43.5-43.5s43.5 19.476 43.5 43.5-19.476 43.5-43.5 43.5-43.5-19.476-43.5-43.5m691 693c0-24.02 19.476-43.5 43.5-43.5 24.02 0 43.5 19.48 43.5 43.5s-19.48 43.5-43.5 43.5c-24.024 0-43.5-19.48-43.5-43.5m-691 0c0-24.02 19.476-43.5 43.5-43.5s43.5 19.48 43.5 43.5-19.476 43.5-43.5 43.5-43.5-19.48-43.5-43.5"/><path fill="#d74514" d="m654.706 741.96 308.921-302.332-6.412-6.551-308.92 302.331Zm318.468-286.024 16.728-48.436-48.785 15.68Z"/><path fill="#5d1709" fill-rule="evenodd" d="M874 121c0-24.3 19.476-44 43.5-44S961 96.7 961 121s-19.475 44-43.5 44-43.5-19.699-43.5-44"/><path fill="red" d="m655.71 737.354 231.214-537.153-8.42-3.624L647.29 733.73ZM901.95 211.66l-2.928-51.159-39.171 33.038Z"/><path fill="#d74514" d="m655.716 741.254 167.712-393.015-8.431-3.598-167.713 393.015ZM838.49 359.65l-3.089-51.15-39.066 33.161Z"/><text fill="#5d1709" font-family="Microsoft YaHei,Microsoft YaHei_MSFontService,sans-serif" font-size="55" font-weight="400" transform="translate(977.171 133)">measured<tspan x="119.279" y="254" fill="#d74514">ideal</tspan><tspan x="-584.724" y="171" fill="red">m</tspan><tspan x="-533.161" y="171" fill="red">agnitude error</tspan></text><path fill="none" stroke="red" stroke-miterlimit="8" stroke-width="4.583" d="M791.5 605.5c-6.315-11.827-12.63-23.654-22.963-31.154S743.852 563.673 729.5 560.5"/><text fill="red" font-family="Microsoft YaHei,Microsoft YaHei_MSFontService,sans-serif" font-size="55" font-weight="400" transform="translate(807.386 646)">p<tspan x="34.948" y="0">hase error</tspan></text></g></svg>

<svg width="1195" height="1226" xmlns="http://www.w3.org/2000/svg" xmlns:xlink="http://www.w3.org/1999/xlink" overflow="hidden"><defs><clipPath id="clip0"><rect x="92" y="63" width="1195" height="1226"/></clipPath></defs><g clip-path="url(#clip0)" transform="translate(-92 -63)"><path d="M92.5 739.5 1281.88 739.5" stroke="#000000" stroke-width="9.16667" stroke-miterlimit="8" fill="none" fill-rule="evenodd"/><path d="M0 0 0.000360892 1103.44" stroke="#000000" stroke-width="9.16667" stroke-miterlimit="8" fill="none" fill-rule="evenodd" transform="matrix(1 0 0 -1 651.5 1288.94)"/><path d="M977 376.5C977 352.476 996.476 333 1020.5 333 1044.52 333 1064 352.476 1064 376.5 1064 400.524 1044.52 420 1020.5 420 996.476 420 977 400.524 977 376.5Z" fill="#D74514" fill-rule="evenodd"/><path d="M1228.97 797.434 1243.23 797.434 1242.84 799.181C1241.93 799.371 1241.28 799.585 1240.89 799.822 1240.5 800.06 1240.15 800.417 1239.84 800.892 1239.53 801.367 1239.21 802.11 1238.88 803.12 1238.55 804.13 1238.13 805.775 1237.63 808.056L1231.54 835.716C1231.23 837.119 1231.03 838.229 1230.93 839.049 1230.84 839.869 1230.79 840.612 1230.79 841.277 1230.79 842.346 1231.05 843.101 1231.59 843.54 1232.12 843.98 1233.02 844.247 1234.28 844.342L1233.89 846.089 1219.63 846.089 1220.02 844.342C1220.93 844.2 1221.6 843.968 1222.05 843.647 1222.51 843.327 1222.89 842.881 1223.2 842.311 1223.5 841.74 1223.79 841.045 1224.05 840.226 1224.31 839.406 1224.7 837.82 1225.23 835.467L1231.29 808.021C1231.81 805.644 1232.07 803.731 1232.07 802.282 1232.07 801.165 1231.79 800.387 1231.23 799.947 1230.67 799.508 1229.79 799.252 1228.58 799.181Z" fill-rule="evenodd"/><text fill="#000000" fill-opacity="0" font-family="Arial,Arial_MSFontService,sans-serif" font-size="48.6548" x="1219.63" y="840.007">𝐼</text><path d="M724.242 202.272C721.676 202.272 719.281 203.186 717.06 205.016 714.838 206.846 712.889 209.46 711.214 212.858 709.539 216.256 708.238 219.987 707.311 224.05 706.384 228.114 705.921 231.702 705.921 234.815 705.921 242.158 708.594 245.829 713.941 245.829 717.244 245.829 720.273 244.291 723.03 241.213 725.787 238.136 728.008 233.876 729.696 228.435 731.383 222.993 732.226 217.908 732.226 213.179 732.226 209.638 731.573 206.935 730.266 205.07 728.959 203.204 726.951 202.272 724.242 202.272ZM724.634 199.135C729.22 199.135 732.755 200.466 735.238 203.127 737.721 205.789 738.963 209.638 738.963 214.676 738.963 218.003 738.44 221.722 737.395 225.833 736.349 229.944 734.912 233.573 733.082 236.722 731.252 239.871 729.131 242.407 726.719 244.332 724.307 246.257 721.687 247.588 718.86 248.324 719.406 250.059 719.917 251.491 720.392 252.62 720.868 253.748 721.325 254.663 721.765 255.364 722.204 256.065 722.638 256.588 723.066 256.932 723.493 257.277 723.921 257.509 724.349 257.628 724.777 257.746 725.276 257.806 725.846 257.806 726.749 257.806 727.664 257.544 728.591 257.022 729.517 256.499 730.551 255.596 731.692 254.313L733.545 256.309C731.644 258.376 729.874 259.838 728.234 260.693 726.594 261.548 724.907 261.976 723.173 261.976 721.2 261.976 719.59 261.537 718.343 260.657 717.095 259.778 716.014 258.376 715.099 256.451 714.184 254.527 713.299 252.008 712.444 248.895 708.143 248.657 704.863 247.231 702.606 244.617 700.348 242.003 699.219 238.32 699.219 233.568 699.219 230.003 699.82 225.975 701.02 221.484 702.22 216.993 703.954 213.03 706.224 209.597 708.493 206.163 711.202 203.561 714.351 201.79 717.499 200.02 720.927 199.135 724.634 199.135Z" fill-rule="evenodd"/><text fill="#000000" fill-opacity="0" font-family="Arial,Arial_MSFontService,sans-serif" font-size="62.8413" x="699.219" y="254.121">𝑄</text><path d="M286 376.5C286 352.476 305.476 333 329.5 333 353.524 333 373 352.476 373 376.5 373 400.524 353.524 420 329.5 420 305.476 420 286 400.524 286 376.5Z" fill="#D74514" fill-rule="evenodd"/><path d="M977 1069.5C977 1045.48 996.476 1026 1020.5 1026 1044.52 1026 1064 1045.48 1064 1069.5 1064 1093.52 1044.52 1113 1020.5 1113 996.476 1113 977 1093.52 977 1069.5Z" fill="#D74514" fill-rule="evenodd"/><path d="M286 1069.5C286 1045.48 305.476 1026 329.5 1026 353.524 1026 373 1045.48 373 1069.5 373 1093.52 353.524 1113 329.5 1113 305.476 1113 286 1093.52 286 1069.5Z" fill="#D74514" fill-rule="evenodd"/><path d="M3.20578-3.27565 312.127 299.056 305.715 305.607-3.20578 3.27565ZM321.674 282.748 338.402 331.184 289.617 315.504Z" fill="#D74514" transform="matrix(1 0 0 -1 651.5 738.684)"/><path d="M874 121C874 96.6995 893.476 77 917.5 77 941.525 77 961 96.6995 961 121 961 145.301 941.525 165 917.5 165 893.476 165 874 145.301 874 121Z" fill="#5D1709" fill-rule="evenodd"/><path d="M4.20989-1.81212 235.424 535.341 227.004 538.965-4.20989 1.81212ZM250.451 523.883 247.523 575.042 208.352 542.004Z" fill="#FF0000" transform="matrix(1 0 0 -1 651.5 735.542)"/><path d="M4.21555-1.79891 171.928 391.216 163.497 394.814-4.21555 1.79891ZM186.991 379.805 183.902 430.955 144.836 397.794Z" fill="#D74514" transform="matrix(1 0 0 -1 651.5 739.455)"/><text fill="#5D1709" font-family="Microsoft YaHei,Microsoft YaHei_MSFontService,sans-serif" font-weight="400" font-size="55" transform="matrix(1 0 0 1 977.171 133)">measured<tspan fill="#D74514" font-size="55" x="119.279" y="254">ideal</tspan><tspan fill="#FF0000" font-size="55" x="-584.724" y="171">m</tspan><tspan fill="#FF0000" font-size="55" x="-533.161" y="171">agnitude error</tspan></text><path d="M791.5 605.5C785.185 593.673 778.87 581.846 768.537 574.346 758.204 566.846 743.852 563.673 729.5 560.5" stroke="#FF0000" stroke-width="4.58333" stroke-miterlimit="8" fill="none" fill-rule="evenodd"/><text fill="#FF0000" font-family="Microsoft YaHei,Microsoft YaHei_MSFontService,sans-serif" font-weight="400" font-size="55" transform="matrix(1 0 0 1 807.386 646)">p<tspan font-size="55" x="34.9479" y="0">hase error</tspan></text></g></svg>
